images/xballs.svg

<svg width="978" height="522" viewBox="0 0 978 522" fill="none" xmlns="http://www.w3.org/2000/svg">
<path d="M959.593 208.623C967.787 216.528 959.652 229.846 954.56 235.517C954.905 229.714 953.486 216.277 945.045 208.956C934.495 199.804 904.305 196.656 883.412 197.089C862.518 197.522 865.08 172.219 891.715 177.39C918.351 182.561 949.351 198.741 959.593 208.623Z" stroke="black" stroke-width="3"/>
<path d="M961.889 258.205C966.627 253.449 967.1 246.076 963.012 240.686L947.184 219.812C943.579 215.058 937.264 212.98 931.45 214.634L926.736 215.976C917.598 218.577 913.772 228.931 919.107 236.622L935.527 260.294C940.635 267.657 951.478 268.657 957.766 262.345L961.889 258.205Z" fill="#FFB96F"/>
<path d="M729.676 18.7022C713.708 9.36996 694.549 26.5338 686.965 36.2822C696.443 33.5994 719.171 30.7136 734.261 40.6324C753.123 53.0308 768.986 97.108 775.644 128.587C782.303 160.066 823.253 146.785 805.298 108.79C787.343 70.7955 749.637 30.3675 729.676 18.7022Z" stroke="black" stroke-width="3"/>
<path d="M649.182 27.5839C653.023 22.0196 660.308 19.8189 666.538 22.341L719.482 43.774C724.943 45.985 728.326 51.3323 727.944 57.1505L726.384 80.8883C725.769 90.2407 716.036 96.515 707.109 93.3137L640.928 69.5805C632.431 66.5336 629.233 56.4843 634.384 49.0215L649.182 27.5839Z" fill="#95E1F9"/>
<ellipse cx="133.271" cy="135.355" rx="133.271" ry="135.355" transform="matrix(0.589927 0.807457 -0.831694 0.555234 668.017 2.93213)" fill="#69CBEA"/>
<ellipse cx="84.8389" cy="82.1272" rx="84.8389" ry="82.1272" transform="matrix(-0.933174 -0.359425 -0.388418 0.921483 977.159 243.885)" fill="#FC8E19"/>
<path d="M448.578 197.719L484.728 194.842" stroke="#218BAD" stroke-width="6" stroke-linecap="round"/>
<path d="M424.455 149.592L456.536 133.408" stroke="#218BAD" stroke-width="6" stroke-linecap="round"/>
<path d="M386.216 107.945L407.611 79.9428" stroke="#218BAD" stroke-width="6" stroke-linecap="round"/>
<path d="M338.9 54.5803L339.333 89.253" stroke="#218BAD" stroke-width="6" stroke-linecap="round"/>
<path d="M45.9541 365.192L10.7 373.359" stroke="#218BAD" stroke-width="6" stroke-linecap="round"/>
<path d="M77.5459 409.192L48.4567 429.908" stroke="#218BAD" stroke-width="6" stroke-linecap="round"/>
<path d="M122.043 444.71L105.417 475.528" stroke="#218BAD" stroke-width="6" stroke-linecap="round"/>
<path d="M177.393 490.468L171.377 456.273" stroke="#218BAD" stroke-width="6" stroke-linecap="round"/>
<path d="M115.107 18.1821C90.1344 28.6258 95.5971 64.8056 101.45 81.5901C106.002 68.5355 121.35 40.1884 146.322 31.2367C177.537 20.047 245.821 38.6964 290.693 57.3459C335.565 75.9953 353.124 18.1821 290.693 6.99245C228.262 -4.19719 146.322 5.12751 115.107 18.1821Z" stroke="black" stroke-width="3"/>
<path d="M58.5573 109.621C55.9944 103.45 58.3194 96.4704 64.0924 93.0064L143.178 45.5516C148.247 42.51 154.808 42.8999 159.572 46.5257L198.765 76.3534C206.379 82.1475 206.106 93.3007 198.225 98.4798L99.553 163.321C92.0401 168.258 81.5923 165.09 78.1643 156.835L58.5573 109.621Z" fill="#6FB2C7"/>
<ellipse cx="244.844" cy="267.152" rx="199.973" ry="191.156" fill="#218BAD"/>
<mask id="mask0_638_705" style="mask-type:alpha" maskUnits="userSpaceOnUse" x="780" y="205" width="172" height="165">
<ellipse cx="84.8389" cy="82.1272" rx="84.8389" ry="82.1272" transform="matrix(-0.933174 -0.359425 -0.388418 0.921483 977.16 242.351)" fill="#FC8E19"/>
</mask>
<g mask="url(#mask0_638_705)">
<path d="M784.285 313.776L914.024 354.805L792.089 250.368L947.19 313.776L833.059 211.204L947.19 255.03" stroke="#FFB96F" stroke-width="6"/>
</g>
<ellipse cx="208.753" cy="134.741" rx="36.0928" ry="34.5014" fill="#69CBEA"/>
<ellipse cx="129.739" cy="190.689" rx="22.436" ry="21.4468" fill="#FC8E19"/>
<ellipse cx="306.301" cy="134.741" rx="25.3625" ry="24.2442" fill="#ADD6E3"/>
<ellipse cx="306.301" cy="376.251" rx="36.0928" ry="34.5014" fill="#69CBEA"/>
<ellipse cx="208.752" cy="400.495" rx="22.436" ry="21.4468" fill="#ADD6E3"/>
<ellipse cx="384.338" cy="313.775" rx="25.3625" ry="24.2442" fill="#FC8E19"/>
<mask id="mask1_638_705" style="mask-type:alpha" maskUnits="userSpaceOnUse" x="496" y="54" width="276" height="264">
<ellipse cx="133.271" cy="135.355" rx="133.271" ry="135.355" transform="matrix(0.589927 0.807457 -0.831694 0.555234 668.016 3.26221)" fill="#69CBEA"/>
</mask>
<g mask="url(#mask1_638_705)">
<rect width="42.0361" height="282.108" transform="matrix(0.741053 -0.671447 0.704112 0.710089 454.573 168.561)" fill="#95E1F9"/>
<rect width="42.0361" height="282.108" transform="matrix(0.741053 -0.671447 0.704112 0.710089 503.347 118.207)" fill="#95E1F9"/>
<rect width="42.0361" height="282.108" transform="matrix(0.741053 -0.671447 0.704112 0.710089 554.072 67.8538)" fill="#95E1F9"/>
<rect width="42.0361" height="282.108" transform="matrix(0.741053 -0.671447 0.704112 0.710089 602.846 13.7705)" fill="#95E1F9"/>
</g>
</svg>

<svg width="978" height="522" fill="none" xmlns="http://www.w3.org/2000/svg"><path d="M959.593 208.623c8.194 7.905.059 21.223-5.033 26.894.345-5.803-1.074-19.24-9.515-26.561-10.55-9.152-40.74-12.3-61.633-11.867-20.894.433-18.332-24.87 8.303-19.699 26.636 5.171 57.636 21.351 67.878 31.233Z" stroke="#000" stroke-width="3"/><path d="M961.889 258.205c4.738-4.756 5.211-12.129 1.123-17.519l-15.828-20.874c-3.605-4.754-9.92-6.832-15.734-5.178l-4.714 1.342c-9.138 2.601-12.964 12.955-7.629 20.646l16.42 23.672c5.108 7.363 15.951 8.363 22.239 2.051l4.123-4.14Z" fill="#FFB96F"/><path d="M729.676 18.702c-15.968-9.332-35.127 7.832-42.711 17.58 9.478-2.683 32.206-5.568 47.296 4.35 18.862 12.399 34.725 56.476 41.383 87.955 6.659 31.479 47.609 18.198 29.654-19.797-17.955-37.995-55.661-78.423-75.622-90.088Z" stroke="#000" stroke-width="3"/><path d="M649.182 27.584c3.841-5.564 11.126-7.765 17.356-5.243l52.944 21.433c5.461 2.211 8.844 7.558 8.462 13.377l-1.56 23.737c-.615 9.353-10.348 15.627-19.275 12.426L640.928 69.58c-8.497-3.047-11.695-13.097-6.544-20.56l14.798-21.437Z" fill="#95E1F9"/><ellipse cx="133.271" cy="135.355" rx="133.271" ry="135.355" transform="matrix(.58993 .80746 -.8317 .55523 668.017 2.932)" fill="#69CBEA"/><ellipse cx="84.839" cy="82.127" rx="84.839" ry="82.127" transform="matrix(-.93317 -.35942 -.38842 .92148 977.159 243.885)" fill="#FC8E19"/><path d="m448.578 197.719 36.15-2.877M424.455 149.592l32.081-16.184M386.216 107.945l21.395-28.002M338.9 54.58l.433 34.673M45.954 365.192 10.7 373.359M77.546 409.192l-29.09 20.716M122.043 444.71l-16.626 30.818M177.393 490.468l-6.016-34.195" stroke="#218BAD" stroke-width="6" stroke-linecap="round"/><path d="M115.107 18.182C90.134 28.626 95.597 64.806 101.45 81.59c4.552-13.055 19.9-41.402 44.872-50.353 31.215-11.19 99.499 7.46 144.371 26.109 44.872 18.65 62.431-39.164 0-50.354-62.431-11.19-144.371-1.864-175.586 11.19Z" stroke="#000" stroke-width="3"/><path d="M58.557 109.621c-2.563-6.171-.238-13.15 5.535-16.615l79.086-47.454c5.069-3.042 11.63-2.652 16.394.974l39.193 29.827c7.614 5.794 7.341 16.948-.54 22.127L99.553 163.32c-7.513 4.937-17.96 1.769-21.389-6.486l-19.607-47.214Z" fill="#6FB2C7"/><ellipse cx="244.844" cy="267.152" rx="199.973" ry="191.156" fill="#218BAD"/><mask id="a" style="mask-type:alpha" maskUnits="userSpaceOnUse" x="780" y="205" width="172" height="165"><ellipse cx="84.839" cy="82.127" rx="84.839" ry="82.127" transform="matrix(-.93317 -.35942 -.38842 .92148 977.16 242.351)" fill="#FC8E19"/></mask><g mask="url(#a)"><path d="m784.285 313.776 129.739 41.029-121.935-104.437 155.101 63.408-114.131-102.572L947.19 255.03" stroke="#FFB96F" stroke-width="6"/></g><ellipse cx="208.753" cy="134.741" rx="36.093" ry="34.501" fill="#69CBEA"/><ellipse cx="129.739" cy="190.689" rx="22.436" ry="21.447" fill="#FC8E19"/><ellipse cx="306.301" cy="134.741" rx="25.363" ry="24.244" fill="#ADD6E3"/><ellipse cx="306.301" cy="376.251" rx="36.093" ry="34.501" fill="#69CBEA"/><ellipse cx="208.752" cy="400.495" rx="22.436" ry="21.447" fill="#ADD6E3"/><ellipse cx="384.338" cy="313.775" rx="25.363" ry="24.244" fill="#FC8E19"/><mask id="b" style="mask-type:alpha" maskUnits="userSpaceOnUse" x="496" y="54" width="276" height="264"><ellipse cx="133.271" cy="135.355" rx="133.271" ry="135.355" transform="matrix(.58993 .80746 -.8317 .55523 668.016 3.262)" fill="#69CBEA"/></mask><g mask="url(#b)" fill="#95E1F9"><path d="m454.573 168.561 31.15-28.225L684.36 340.658l-31.151 28.225zM503.347 118.207l31.15-28.225 198.637 200.322-31.151 28.225zM554.072 67.854l31.15-28.225L783.86 239.95l-31.151 28.225zM602.846 13.77l31.15-28.224 198.637 200.321-31.151 28.225z"/></g></svg>
